svg/s/XK.svg

<svg fill="none" height="12" viewBox="0 0 16 12" width="16" xmlns="http://www.w3.org/2000/svg" xmlns:xlink="http://www.w3.org/1999/xlink"><mask id="a" height="12" maskUnits="userSpaceOnUse" width="16" x="0" y="0"><path d="m0 0h16v12h-16z" fill="#fff"/></mask><g mask="url(#a)"><path clip-rule="evenodd" d="m0 0h16v12h-16z" fill="#2e42a5" fill-rule="evenodd"/><path d="m7.85018 8.98944c.05127-.05196.13541 0 .13541 0s.24299-.17354.24299-.20193-.11718-.37238-.01851-.49157c.09866-.11918.89917-.53709.97363-.51341.07447.02368.25981.38999.32016.38999.06036 0 .23514.00812.23514-.04982 0-.05795-.0573-.29541.1255-.40862.1828-.11322.3141-.24171.4149-.13586.1008.10584.1444.03791.1444.03791s.0296-.14829-.0258-.1922c-.0553-.04391-.1696-.14112-.055-.2022.1146-.06109.2086-.04423.2086-.04423l.0779-.12006-.0779-.15218.3782-.43338-.055-.1011s.0854-.05585.0996-.14447c.0142-.08861.0687-.1483-.0446-.19846-.1133-.05015-.1518.03059-.1902.05016s-.0527.07372-.0527.07372l-.0574-.12388s-.3673-.14362-.4974-.14362c-.13 0-.23379.0021-.17419-.18115.05959-.18324.13239-.22551.09169-.28013-.0407-.05463-.0596.05462-.1851-.0326s-.3765-.11485-.3765-.25597-.28272-.6361-.39427-.6361-.13524.04213-.13524.04213-.5639-.14128-.5639-.19168c0-.05039.0894-.16008.0894-.16008s-.09809-.22019-.19026-.18338c-.09216.03682-.26484.20935-.35419.20935-.08936 0-.2395.01195-.2395.01195s.32885.32632.2395.46942c-.08936.14309-.16099.24672-.16099.24672l-.11175-.00527-.23725.18588.10258.21485s-.16461.18798-.2298.18798-.15846-.05581-.26433 0c-.10587.05582-.21451.04224-.21451.04224s-.15439.09905-.15439.13469c0 .03565-.03668.1148-.03668.1148h-.16234l-.2113-.09373s-.28991.11163-.25504.23274c.03487.12112.38054.21537.38054.21537l-.09914.14323s.04642.28225.14327.33227.27679.3586.27679.3586l-.07278.08785s.1255.05011.1255.15121c0 .10111.15014.12428.15014.12428l.12994-.03189.01677.06348.10372.03581.03267.04897s.51919.53289.47564.63663c-.04355.10373.0745.3191.0745.3191l.07278.25201-.14728.14385s.13212.20374.18338.15178z" fill="#e8ab02"/><path clip-rule="evenodd" d="m8.89738 2.974-.38522.21853.11002-.44414-.369-.32638h.48197l.16165-.4203.18954.4203h.41087l-.32283.32638.15523.44414zm1.43462.56302.3852-.21854.4323.21854-.1553-.44415.3229-.32637h-.4109l-.1895-.4203-.1617.4203h-.482l.369.32637zm1.6516.46104.3852-.21853.4322.21853-.1552-.44414.3228-.32638h-.4109l-.1895-.4203-.1617.4203h-.4819l.369.32638zm-8.69321 0 .38521-.21853.43223.21853-.15522-.44414.32282-.32638h-.41086l-.18955-.4203-.16165.4203h-.48197l.36901.32638zm2.03675-.67958-.38521.21854.11002-.44415-.36901-.32637h.48197l.16165-.4203.18955.4203h.41086l-.32283.32637.15523.44415zm1.43255-.12595.38521-.21853.43223.21853-.15522-.44414.32282-.32638h-.41086l-.18955-.4203-.16165.4203h-.48197l.36901.32638z" fill="#f7fcff" fill-rule="evenodd"/></g></svg>

<svg width="16" height="12" viewBox="0 0 16 12" fill="none" xmlns="http://www.w3.org/2000/svg">
<mask id="mask0" mask-type="alpha" maskUnits="userSpaceOnUse" x="0" y="0" width="16" height="12">
<rect width="16" height="12" fill="white"/>
</mask>
<g mask="url(#mask0)">
<path fill-rule="evenodd" clip-rule="evenodd" d="M0 0H16V12H0V0Z" fill="#2E42A5"/>
<path d="M7.85018 8.98944C7.90145 8.93748 7.98559 8.98944 7.98559 8.98944C7.98559 8.98944 8.22858 8.8159 8.22858 8.78751C8.22858 8.75912 8.1114 8.41513 8.21007 8.29594C8.30873 8.17676 9.10924 7.75885 9.1837 7.78253C9.25817 7.80621 9.44351 8.17252 9.50386 8.17252C9.56422 8.17252 9.739 8.18064 9.739 8.1227C9.739 8.06475 9.6817 7.82729 9.8645 7.71408C10.0473 7.60086 10.1786 7.47237 10.2794 7.57822C10.3802 7.68406 10.4238 7.61613 10.4238 7.61613C10.4238 7.61613 10.4534 7.46784 10.398 7.42393C10.3427 7.38002 10.2284 7.28281 10.343 7.22173C10.4576 7.16064 10.5516 7.1775 10.5516 7.1775L10.6295 7.05744L10.5516 6.90526L10.9298 6.47188L10.8748 6.37078C10.8748 6.37078 10.9602 6.31493 10.9744 6.22631C10.9886 6.1377 11.0431 6.07801 10.9298 6.02785C10.8165 5.9777 10.778 6.05844 10.7396 6.07801C10.7012 6.09758 10.6869 6.15173 10.6869 6.15173L10.6295 6.02785C10.6295 6.02785 10.2622 5.88423 10.1321 5.88423C10.0021 5.88423 9.89831 5.88633 9.95791 5.70308C10.0175 5.51984 10.0903 5.47757 10.0496 5.42295C10.0089 5.36832 9.99 5.47757 9.8645 5.39035C9.739 5.30313 9.488 5.2755 9.488 5.13438C9.488 4.99326 9.20528 4.49828 9.09373 4.49828C8.98218 4.49828 8.95849 4.54041 8.95849 4.54041C8.95849 4.54041 8.39459 4.39913 8.39459 4.34873C8.39459 4.29834 8.48399 4.18865 8.48399 4.18865C8.48399 4.18865 8.3859 3.96846 8.29373 4.00527C8.20157 4.04209 8.02889 4.21462 7.93954 4.21462C7.85018 4.21462 7.70004 4.22657 7.70004 4.22657C7.70004 4.22657 8.02889 4.55289 7.93954 4.69599C7.85018 4.83908 7.77855 4.94271 7.77855 4.94271L7.6668 4.93744L7.42955 5.12332L7.53213 5.33817C7.53213 5.33817 7.36752 5.52615 7.30233 5.52615C7.23714 5.52615 7.14387 5.47034 7.038 5.52615C6.93213 5.58197 6.82349 5.56839 6.82349 5.56839C6.82349 5.56839 6.6691 5.66744 6.6691 5.70308C6.6691 5.73873 6.63242 5.81788 6.63242 5.81788H6.47008L6.25878 5.72415C6.25878 5.72415 5.96887 5.83578 6.00374 5.95689C6.03861 6.07801 6.38428 6.17226 6.38428 6.17226L6.28514 6.31549C6.28514 6.31549 6.33156 6.59774 6.42841 6.64776C6.52526 6.69778 6.7052 7.00636 6.7052 7.00636L6.63242 7.09421C6.63242 7.09421 6.75792 7.14432 6.75792 7.24542C6.75792 7.34653 6.90806 7.3697 6.90806 7.3697L7.038 7.33781L7.05477 7.40129L7.15849 7.4371L7.19116 7.48607C7.19116 7.48607 7.71035 8.01896 7.6668 8.1227C7.62325 8.22643 7.7413 8.4418 7.7413 8.4418L7.81408 8.69381L7.6668 8.83766C7.6668 8.83766 7.79892 9.0414 7.85018 8.98944Z" fill="#E8AB02"/>
<path fill-rule="evenodd" clip-rule="evenodd" d="M8.89738 2.974L8.51216 3.19253L8.62218 2.74839L8.25318 2.42201H8.73515L8.8968 2.00171L9.08634 2.42201H9.49721L9.17438 2.74839L9.32961 3.19253L8.89738 2.974ZM10.332 3.53702L10.7172 3.31848L11.1495 3.53702L10.9942 3.09287L11.3171 2.7665H10.9062L10.7167 2.3462L10.555 2.7665H10.073L10.442 3.09287L10.332 3.53702ZM11.9836 3.99806L12.3688 3.77953L12.801 3.99806L12.6458 3.55392L12.9686 3.22754H12.5577L12.3682 2.80724L12.2065 3.22754H11.7246L12.0936 3.55392L11.9836 3.99806ZM3.29039 3.99806L3.6756 3.77953L4.10783 3.99806L3.95261 3.55392L4.27543 3.22754H3.86457L3.67502 2.80724L3.51337 3.22754H3.0314L3.40041 3.55392L3.29039 3.99806ZM5.32714 3.31848L4.94193 3.53702L5.05195 3.09287L4.68294 2.7665H5.16491L5.32656 2.3462L5.51611 2.7665H5.92697L5.60414 3.09287L5.75937 3.53702L5.32714 3.31848ZM6.75969 3.19253L7.1449 2.974L7.57713 3.19253L7.42191 2.74839L7.74473 2.42201H7.33387L7.14432 2.00171L6.98267 2.42201H6.5007L6.86971 2.74839L6.75969 3.19253Z" fill="#F7FCFF"/>
</g>
</svg>
